X:224
T:Red Wing
M:4/4
L:1/8
C:Septimus Winner
K:G
D|"G"GG/2G/2 GB d3 B|"C"ce ge "G"d3 B|"D7"c>B Ac "G"B>A GB|"A7"AE FG "D7"AF ED|
"G"GG/2G/2 GB d3 B|"C"ce ge "G"d3 B|"D7"c>B Ac "G"B>A GB|"A7"AE "D7"FD "G"Gg f=f||
"C"e2 e>e eg fe|"G"d2 B2-Bd ed|"D7"d2 A2-Ad ed|"G"d2 B2-Bg f=f|
"C"e2 e>e eg fe|"G"d2 B2-Bd ed|"D7"d2 A2-Ac BA|"G"G2 G>G G3||
